app/img/icons/f2.svg

<svg width="32" height="28" viewBox="0 0 32 28" fill="none" xmlns="http://www.w3.org/2000/svg">
<path d="M16 10.9375C18.9983 10.9375 21.4375 8.49825 21.4375 5.5C21.4375 2.50175 18.9983 0.0625 16 0.0625C13.0017 0.0625 10.5625 2.50175 10.5625 5.5C10.5625 8.49825 13.0017 10.9375 16 10.9375ZM16 1.9375C17.9644 1.9375 19.5625 3.53562 19.5625 5.5C19.5625 7.46438 17.9644 9.0625 16 9.0625C14.0356 9.0625 12.4375 7.46438 12.4375 5.5C12.4375 3.53562 14.0356 1.9375 16 1.9375Z" fill="#FA4616"/>
<path d="M27 10.9375C28.8954 10.9375 30.4375 9.39544 30.4375 7.5C30.4375 5.60456 28.8954 4.0625 27 4.0625C25.1046 4.0625 23.5625 5.60456 23.5625 7.5C23.5625 9.39544 25.1046 10.9375 27 10.9375ZM27 5.9375C27.8616 5.9375 28.5625 6.63844 28.5625 7.5C28.5625 8.36156 27.8616 9.0625 27 9.0625C26.1384 9.0625 25.4375 8.36156 25.4375 7.5C25.4375 6.63844 26.1384 5.9375 27 5.9375Z" fill="#FA4616"/>
<path d="M27.7563 13.0625H26.3062C24.5976 13.0625 23.1226 14.072 22.4504 15.522C21.0666 14.0114 19.0789 13.0625 16.8737 13.0625H15.1264C12.9211 13.0625 10.9334 14.0114 9.54963 15.522C8.87744 14.072 7.40244 13.0625 5.69375 13.0625H4.24375C1.90375 13.0625 0 14.9547 0 17.2806V24.1063C0 25.116 0.824625 25.9375 1.83825 25.9375H7.57119C7.66731 27.0562 8.60806 27.9375 9.75138 27.9375H22.2487C23.3919 27.9375 24.3327 27.0562 24.4289 25.9375H30.0963C31.1461 25.9375 32.0001 25.0869 32.0001 24.0413V17.2806C32 14.9547 30.0963 13.0625 27.7563 13.0625ZM1.875 17.2806C1.875 15.9886 2.93762 14.9375 4.24375 14.9375H5.69375C6.99988 14.9375 8.0625 15.9886 8.0625 17.2806V17.9226C7.43206 19.5641 7.5625 20.5478 7.5625 24.0625H1.875V17.2806ZM22.5625 25.7487C22.5625 25.9218 22.4218 26.0625 22.2487 26.0625H9.75131C9.57825 26.0625 9.4375 25.9217 9.4375 25.7487V20.6264C9.4375 17.4895 11.9895 14.9375 15.1263 14.9375H16.8736C20.0105 14.9375 22.5625 17.4895 22.5625 20.6263V25.7487ZM30.125 24.0413C30.125 24.0736 30.4745 24.0625 24.4375 24.0625C24.4375 20.5218 24.5669 19.5614 23.9375 17.9226V17.2806C23.9375 15.9886 25.0001 14.9375 26.3062 14.9375H27.7563C29.0624 14.9375 30.125 15.9886 30.125 17.2806V24.0413Z" fill="#FA4616"/>
<path d="M5 10.9375C6.89544 10.9375 8.4375 9.39544 8.4375 7.5C8.4375 5.60456 6.89544 4.0625 5 4.0625C3.10456 4.0625 1.5625 5.60456 1.5625 7.5C1.5625 9.39544 3.10456 10.9375 5 10.9375ZM5 5.9375C5.86156 5.9375 6.5625 6.63844 6.5625 7.5C6.5625 8.36156 5.86156 9.0625 5 9.0625C4.13844 9.0625 3.4375 8.36156 3.4375 7.5C3.4375 6.63844 4.13844 5.9375 5 5.9375Z" fill="#FA4616"/>
</svg>

<svg width="32" height="28" fill="none" xmlns="http://www.w3.org/2000/svg"><path d="M16 10.938A5.444 5.444 0 0021.438 5.5 5.444 5.444 0 0016 .062 5.444 5.444 0 0010.562 5.5 5.444 5.444 0 0016 10.938zm0-9A3.567 3.567 0 0119.563 5.5 3.567 3.567 0 0116 9.063 3.567 3.567 0 0112.437 5.5 3.567 3.567 0 0116 1.937zm11 9A3.441 3.441 0 0030.438 7.5 3.441 3.441 0 0027 4.062 3.441 3.441 0 0023.562 7.5 3.441 3.441 0 0027 10.938zm0-5a1.564 1.564 0 010 3.125c-.862 0-1.563-.701-1.563-1.563S26.138 5.937 27 5.937zm.756 7.125h-1.45a4.25 4.25 0 00-3.856 2.459 7.546 7.546 0 00-5.576-2.46h-1.748a7.545 7.545 0 00-5.576 2.46 4.25 4.25 0 00-3.856-2.46h-1.45C1.904 13.063 0 14.956 0 17.282v6.825c0 1.01.825 1.831 1.838 1.831h5.733a2.191 2.191 0 002.18 2H22.25a2.192 2.192 0 002.18-2h5.667c1.05 0 1.904-.85 1.904-1.896v-6.76c0-2.326-1.904-4.218-4.244-4.218zM1.875 17.28c0-1.292 1.063-2.343 2.369-2.343h1.45c1.306 0 2.369 1.05 2.369 2.343v.642c-.63 1.641-.5 2.625-.5 6.14H1.875V17.28zm20.688 8.468a.315.315 0 01-.314.314H9.75a.314.314 0 01-.313-.314v-5.123a5.695 5.695 0 015.688-5.689h1.748a5.695 5.695 0 015.689 5.69v5.122zm7.562-1.708c0 .033.35.021-5.688.021 0-3.54.13-4.5-.5-6.14v-.641c0-1.292 1.063-2.343 2.37-2.343h1.45c1.305 0 2.368 1.05 2.368 2.343v6.76zM5 10.938A3.441 3.441 0 008.438 7.5 3.441 3.441 0 005 4.062 3.441 3.441 0 001.562 7.5 3.441 3.441 0 005 10.938zm0-5a1.564 1.564 0 010 3.125c-.862 0-1.563-.702-1.563-1.563S4.138 5.937 5 5.937z" fill="#FA4616"/></svg>
